!!!OTL: 122. Wiegenlied bei einem kranken Kinde.
!!!ARE: Europa, Mitteleuropa, Deutschland, Niederrhein
!!!SCT: K0122
!!!TXL: @@DE
!!!YEM: Copyright 1995, estate of Helmut Schaffrath.
**kern	**text
*clefG2	*
*M2/4	*
*k[b-]	*
*F:	*
=1	=1
{4a	Schlaf,
8g	Kind-
8g	-chen,
=2	=2
8f	al-
8f	-ſo
4c}	wohl,
=3	=3
{8a	daß
8a	dich
8g	un-
8g	-ſer
=4	=4
8f	Herr-
8f	-gott
4c}	hol'
=5	=5
{8f	auf
8a	ei'm
8a	gold-
8cc	-nen
=6	=6
4cc	Schlit-
8b-}	-ten,
{8a	nimmt
=7	=7
8g	d'Mut-
8g	-ter
8g	in
8b-	die
=8	=8
4b-	Mit-
4a}	-ten,
=9	=9
{8f	ſetʒt
8a	dein'n
8a	Va-
8cc	-ter
=10	=10
8cc	hin-
8b-	-ten
8b-}	drauf,
{8a	ſo
=11	=11
8g	fah-
8g	-ren
8g	wir
8b-	ʒum
=12	=12
16a	Himmel
16a	.
8g	hin-
4f}	-auf.
==	==
!!!AGN: Kinder -, Wiegen - Lied
!!!ONB: ESAC (Essen Associative Code) Database: KINDER
!!!AMT: simple duple
!!!AIN: vox
!!!EED: Helmut Schaffrath
!!!EEV: 1.0
!!!GTL: I. Wiegenlieder.
!!Vom Niederrhein: Erk III. 1, 61. Peter Nr. 1.
!!@@COMMENT:"Erkl.: Nunnen, ohne Worte ſingen, durch die Ʒähne ſumſen. ſoli = ſpielende Silben, wie ſo ſo, la la, ſo la."
!!@@END:
!!!URL-scan: https://archive.org/details/DeutschesKinderliedUndKinderspiel/page/33/mode/1up
!!!ENC: Anna Maria Matuszewska
!!!EEV: 2024/29/08
*-	*-
